images/icons/instagram.svg

<svg width="19" height="20" viewBox="0 0 19 20" fill="none" xmlns="http://www.w3.org/2000/svg">
<path d="M5.59087 19.5032C4.11694 19.5486 2.68482 19.0094 1.60687 18.0032C1.0723 17.4678 0.65366 16.8281 0.377018 16.124C0.100377 15.4198 -0.0283432 14.6662 -0.00112679 13.9102V6.05815C-0.0460495 5.31712 0.0667904 4.575 0.329937 3.88081C0.593084 3.18662 1.00055 2.55618 1.5254 2.03113C2.05026 1.50609 2.68055 1.0984 3.37465 0.835002C4.06874 0.571605 4.81083 0.458498 5.55187 0.503154H13.4449C14.1867 0.477537 14.926 0.60366 15.6175 0.873796C16.3089 1.14393 16.9379 1.55239 17.4659 2.07415C17.9744 2.60225 18.3721 3.22684 18.6354 3.91109C18.8987 4.59533 19.0223 5.32537 18.9989 6.05815V13.9492C19.0276 14.6962 18.9031 15.4413 18.6331 16.1385C18.3631 16.8357 17.9533 17.4703 17.4289 18.0032C16.3375 19.0124 14.8926 19.5513 13.4069 19.5032H5.59087ZM2.79887 3.26215C2.44703 3.63531 2.1741 4.07563 1.99643 4.55674C1.81876 5.03786 1.74 5.54988 1.76487 6.06215V13.9152C1.73785 14.4319 1.81552 14.9487 1.9932 15.4347C2.17088 15.9207 2.44492 16.3657 2.79887 16.7432C3.5664 17.4283 4.57094 17.7871 5.59887 17.7432H13.4149C14.4428 17.787 15.4473 17.4283 16.2149 16.7432C16.5833 16.3795 16.8723 15.9433 17.0635 15.4622C17.2548 14.9811 17.3441 14.4655 17.3259 13.9482V6.05815C17.3452 5.03917 16.9701 4.05213 16.2789 3.30315C15.9058 2.95116 15.4655 2.67814 14.9844 2.50046C14.5032 2.32279 13.9912 2.24411 13.4789 2.26915H5.59087C4.5656 2.21849 3.56191 2.57547 2.79887 3.26215ZM4.59887 9.96215C4.59887 8.99302 4.88625 8.04566 5.42467 7.23986C5.96309 6.43406 6.72837 5.80601 7.62372 5.43514C8.51908 5.06427 9.50431 4.96724 10.4548 5.15631C11.4053 5.34537 12.2784 5.81205 12.9637 6.49733C13.649 7.18261 14.1157 8.0557 14.3047 9.00621C14.4938 9.95672 14.3968 10.9419 14.0259 11.8373C13.655 12.7327 13.027 13.4979 12.2212 14.0364C11.4154 14.5748 10.468 14.8622 9.49887 14.8622C8.20072 14.8593 6.95653 14.3425 6.03832 13.4248C5.1201 12.5072 4.60257 11.2633 4.59887 9.96515V9.96215ZM6.36187 9.96215C6.36148 10.5836 6.54546 11.1913 6.89053 11.7082C7.23561 12.225 7.72626 12.6279 8.3004 12.8659C8.87454 13.1038 9.50636 13.166 10.1159 13.0447C10.7254 12.9235 11.2853 12.6241 11.7246 12.1845C12.1639 11.7449 12.463 11.1848 12.5839 10.5752C12.7048 9.9656 12.6421 9.33382 12.4038 8.75983C12.1655 8.18584 11.7623 7.69545 11.2452 7.3507C10.7281 7.00596 10.1204 6.82236 9.49887 6.82315C8.66671 6.82658 7.86962 7.15874 7.28128 7.74727C6.69294 8.33579 6.36103 9.13299 6.35787 9.96515L6.36187 9.96215ZM13.4869 4.94215C13.4879 4.72268 13.5538 4.50841 13.6765 4.32639C13.7991 4.14436 13.9729 4.00274 14.1759 3.91939C14.379 3.83604 14.6021 3.81469 14.8173 3.85804C15.0325 3.90139 15.23 4.0075 15.3849 4.16297C15.5398 4.31844 15.6452 4.51632 15.6878 4.73163C15.7303 4.94694 15.7082 5.17003 15.6241 5.37277C15.54 5.5755 15.3978 5.74879 15.2153 5.87077C15.0329 5.99275 14.8184 6.05795 14.5989 6.05815C14.4524 6.05868 14.3073 6.03027 14.1719 5.97456C14.0364 5.91885 13.9133 5.83694 13.8096 5.73352C13.7059 5.6301 13.6237 5.50722 13.5676 5.37193C13.5115 5.23664 13.4827 5.0916 13.4829 4.94515L13.4869 4.94215Z" fill="#005CFF"/>
</svg>

<svg version="1.2" xmlns="http://www.w3.org/2000/svg" viewBox="0 0 19 20" width="19" height="20"><style>.a{fill:#3cd3ff}</style><path class="a" d="m5.6 19.5c-1.5 0-2.9-0.5-4-1.5q-0.8-0.8-1.2-1.9-0.4-1-0.4-2.2v-7.8q-0.1-1.2 0.3-2.2 0.4-1.1 1.2-1.9 0.8-0.8 1.9-1.2 1-0.4 2.2-0.3h7.8q1.2 0 2.2 0.4 1.1 0.4 1.9 1.2 0.7 0.8 1.1 1.8 0.4 1 0.4 2.2v7.8q0 1.2-0.4 2.2-0.4 1.1-1.2 1.9c-1.1 1-2.5 1.6-4 1.5zm-2.8-16.2q-0.5 0.5-0.8 1.3-0.3 0.7-0.2 1.5v7.8q-0.1 0.8 0.2 1.5 0.3 0.8 0.8 1.3c0.8 0.7 1.8 1.1 2.8 1h7.8c1.1 0.1 2.1-0.3 2.8-1q0.6-0.5 0.9-1.2 0.3-0.8 0.2-1.6v-7.8c0.1-1.1-0.3-2-1-2.8q-0.6-0.5-1.3-0.8-0.7-0.3-1.5-0.2h-7.9c-1-0.1-2 0.3-2.8 1zm1.8 6.7c0-1 0.3-2 0.8-2.8 0.6-0.8 1.3-1.4 2.2-1.8 0.9-0.3 1.9-0.4 2.9-0.2 0.9 0.1 1.8 0.6 2.5 1.3 0.7 0.7 1.1 1.6 1.3 2.5 0.2 1 0.1 1.9-0.3 2.8-0.3 0.9-1 1.7-1.8 2.2-0.8 0.6-1.7 0.9-2.7 0.9-1.3 0-2.5-0.6-3.4-1.5-1-0.9-1.5-2.1-1.5-3.4zm1.8 0c0 0.6 0.2 1.2 0.5 1.7 0.4 0.5 0.8 0.9 1.4 1.2 0.6 0.2 1.2 0.3 1.8 0.1 0.6-0.1 1.2-0.4 1.6-0.8 0.5-0.5 0.8-1 0.9-1.6 0.1-0.6 0.1-1.3-0.2-1.8-0.2-0.6-0.6-1.1-1.1-1.4-0.6-0.4-1.2-0.6-1.8-0.6-0.8 0-1.6 0.4-2.2 1-0.6 0.5-0.9 1.3-0.9 2.2zm7.1-5.1q0-0.3 0.2-0.6 0.2-0.2 0.5-0.4 0.3-0.1 0.6 0 0.4 0 0.6 0.3 0.2 0.2 0.3 0.5 0.1 0.4-0.1 0.7-0.1 0.3-0.4 0.5-0.3 0.2-0.6 0.2-0.2 0-0.4-0.1-0.2-0.1-0.4-0.3-0.1-0.1-0.2-0.3-0.1-0.2-0.1-0.4z"/></svg>
